X: 072
T: Mr James Boswell's Jig
C: attr. John French (1753-1803)
R: jig
B: "John French Collection", John French ed. p.7 #2
S: http://www.heallan.com/french.asp
Z: 2012 John Chambers <jc:trillian.mit.edu>
M: 12/8
L: 1/8
K: Dmix
A | TF2D- DFD TF2D AGF | E2C E/F/GE cGF EFG | TF2D- DFD F2D AGF | GcG EFG AFD D2 :|
g | Tf2d- dfd  Adf afd | Te2c cec   Gce gec | Tf2d  dfd Adf afd | cAc GEG AFD D2 ||
g | Tf2d- dfd  Adf afd | Te2c cec   Gce gec |  afd  bge afd gec | AcA GEG AFD D2 |]

%%sep 2 1 500
%%sep 1 1 500

